svg/material-icons/storefront/materialiconssharp/24px.svg

<svg xmlns="http://www.w3.org/2000/svg" width="24" height="24" viewBox="0 0 24 24"><path d="M21.9 8.89 20.49 3H3.51L2.1 8.89c-.24 1.02-.02 2.06.62 2.88.08.11.19.19.28.29V21h18v-8.94c.09-.09.2-.18.28-.28.64-.82.87-1.87.62-2.89zM7.02 5l-.58 4.86c-.08.65-.6 1.14-1.21 1.14-.49 0-.8-.29-.93-.47-.26-.33-.35-.76-.25-1.17L5.09 5h1.93zm11.89 0 1.05 4.36c.1.42.01.84-.25 1.17-.14.18-.44.47-.94.47-.61 0-1.14-.49-1.21-1.14L16.98 5h1.93zm-3.4 4.52c.05.39-.07.78-.33 1.07-.23.26-.55.41-.96.41-.67 0-1.22-.59-1.22-1.31V5h1.96l.55 4.52zM11 9.69c0 .72-.55 1.31-1.29 1.31-.34 0-.65-.15-.89-.41a1.42 1.42 0 0 1-.33-1.07L9.04 5H11v4.69zM5 19v-6.03c.08.01.15.03.23.03.87 0 1.66-.36 2.24-.95.6.6 1.4.95 2.31.95.87 0 1.65-.36 2.23-.93.59.57 1.39.93 2.29.93.84 0 1.64-.35 2.24-.95.58.59 1.37.95 2.24.95.08 0 .15-.02.23-.03V19H5z"/></svg>

<svg xmlns="http://www.w3.org/2000/svg" enable-background="new 0 0 24 24" height="24" viewBox="0 0 24 24" width="24"><g><rect fill="none" height="24" width="24"/></g><g><g/><g><path d="M21.9,8.89L20.49,3h-3.75h-2.01H13h-2H9.28H7.26H3.51L2.1,8.89c-0.24,1.02-0.02,2.06,0.62,2.88 C2.8,11.88,2.91,11.96,3,12.06V21h18v-8.94c0.09-0.09,0.2-0.18,0.28-0.28C21.92,10.96,22.15,9.91,21.9,8.89z M7.02,5L6.44,9.86 C6.36,10.51,5.84,11,5.23,11c-0.49,0-0.8-0.29-0.93-0.47c-0.26-0.33-0.35-0.76-0.25-1.17L5.09,5H7.02z M18.91,5l1.05,4.36 c0.1,0.42,0.01,0.84-0.25,1.17C19.57,10.71,19.27,11,18.77,11c-0.61,0-1.14-0.49-1.21-1.14L16.98,5H18.91z M15.51,9.52 c0.05,0.39-0.07,0.78-0.33,1.07C14.95,10.85,14.63,11,14.22,11C13.55,11,13,10.41,13,9.69V5h1.96L15.51,9.52z M11,9.69 C11,10.41,10.45,11,9.71,11c-0.34,0-0.65-0.15-0.89-0.41C8.57,10.3,8.45,9.91,8.49,9.52L9.04,5H11V9.69z M5,19v-6.03 C5.08,12.98,5.15,13,5.23,13c0.87,0,1.66-0.36,2.24-0.95c0.6,0.6,1.4,0.95,2.31,0.95c0.87,0,1.65-0.36,2.23-0.93 c0.59,0.57,1.39,0.93,2.29,0.93c0.84,0,1.64-0.35,2.24-0.95c0.58,0.59,1.37,0.95,2.24,0.95c0.08,0,0.15-0.02,0.23-0.03V19H5z"/></g></g></svg>
